src/images/linkedin.svg

<svg viewBox="0 0 24 24" xmlns="http://www.w3.org/2000/svg"><path d="m20.47 2h-16.94a1.45 1.45 0 0 0 -1.47 1.43v17.14a1.45 1.45 0 0 0 1.47 1.43h16.94a1.45 1.45 0 0 0 1.47-1.43v-17.14a1.45 1.45 0 0 0 -1.47-1.43zm-12.38 16.74h-3v-9h3zm-1.5-10.26a1.56 1.56 0 1 1 0-3.12 1.57 1.57 0 1 1 0 3.12zm12.32 10.26h-3v-4.83c0-1.21-.43-2-1.52-2a1.65 1.65 0 0 0 -1.54 1.09 2 2 0 0 0 -.1.73v5h-3s0-8.18 0-9h3v1.27a3 3 0 0 1 2.71-1.5c2 0 3.45 1.29 3.45 4.06z"/></svg>

<svg xmlns="http://www.w3.org/2000/svg" data-name="Layer 1" viewBox="0 0 24 24"><path d="M20.47,2H3.53A1.45,1.45,0,0,0,2.06,3.43V20.57A1.45,1.45,0,0,0,3.53,22H20.47a1.45,1.45,0,0,0,1.47-1.43V3.43A1.45,1.45,0,0,0,20.47,2ZM8.09,18.74h-3v-9h3ZM6.59,8.48h0a1.56,1.56,0,1,1,0-3.12,1.57,1.57,0,1,1,0,3.12ZM18.91,18.74h-3V13.91c0-1.21-.43-2-1.52-2A1.65,1.65,0,0,0,12.85,13a2,2,0,0,0-.1.73v5h-3s0-8.18,0-9h3V11A3,3,0,0,1,15.46,9.5c2,0,3.45,1.29,3.45,4.06Z"/></svg>
